Catalina-dark/actions/22/view-bank-account-checking.svg

<?xml version="1.0" encoding="UTF-8" standalone="no"?>
<svg
   xmlns:dc="http://purl.org/dc/elements/1.1/"
   xmlns:cc="http://creativecommons.org/ns#"
   xmlns:rdf="http://www.w3.org/1999/02/22-rdf-syntax-ns#"
   xmlns:svg="http://www.w3.org/2000/svg"
   xmlns="http://www.w3.org/2000/svg"
   xmlns:sodipodi="http://sodipodi.sourceforge.net/DTD/sodipodi-0.dtd"
   xmlns:inkscape="http://www.inkscape.org/namespaces/inkscape"
   viewBox="0 0 22 22"
   id="svg2"
   version="1.1"
   inkscape:version="0.91 r13725"
   sodipodi:docname="view-bank-account-checking.svg">
  <metadata
     id="metadata10">
    <rdf:RDF>
      <cc:Work
         rdf:about="">
        <dc:format>image/svg+xml</dc:format>
        <dc:type
           rdf:resource="http://purl.org/dc/dcmitype/StillImage" />
      </cc:Work>
    </rdf:RDF>
  </metadata>
  <sodipodi:namedview
     pagecolor="#ffffff"
     bordercolor="#666666"
     borderopacity="1"
     objecttolerance="10"
     gridtolerance="10"
     guidetolerance="10"
     inkscape:pageopacity="0"
     inkscape:pageshadow="2"
     inkscape:window-width="640"
     inkscape:window-height="480"
     id="namedview8"
     showgrid="false"
     inkscape:zoom="10.236978"
     inkscape:cx="13.970784"
     inkscape:cy="6.7984086"
     inkscape:current-layer="svg2" />
  <defs
     id="defs3051">
    <style
       type="text/css"
       id="current-color-scheme">
      .ColorScheme-Text {
        color:#f2f2f2
      }
      </style>
    <style
       id="current-color-scheme-3"
       type="text/css">
      .ColorScheme-Text {
        color:#f2f2f2
      }
      </style>
  </defs>
  <path
     style="color:#f2f2f2;fill:currentColor;fill-opacity:1;stroke:none"
     d="m 12.172982,3 c -1.112348,10e-8 -2.013102,0.896844 -2.013102,2.0019531 0,1.1051091 0.900754,1.9999999 2.013102,2 1.112349,-10e-8 2.015068,-0.8948909 2.015068,-2 C 14.18805,3.896844 13.285331,3.0000001 12.172982,3 Z M 6.5150649,5.4824219 C 6.2492972,5.4831556 6.0049855,5.4993553 5.7975041,5.5195312 5.4362681,5.5540333 5.2226905,5.9354738 5.3807291,6.2597656 L 6.0845284,7.6933594 C 5.3032153,8.3695481 4.7136641,9.1942245 4.3820418,10.117188 l -0.8571411,0 C 3.2366838,10.115487 3,10.35036 3,10.636719 l 0,1.910156 c 0,0.19318 0.1092409,0.369289 0.2811266,0.458984 l 1.1107447,0.574219 c 0.4653276,1.274735 1.4302222,2.371195 2.701174,3.125 l 0,1.691406 C 7.0930453,18.729398 7.3673695,19 7.7024805,19 l 1.5570086,0 c 0.2413218,0 0.4610272,-0.142273 0.5583213,-0.361328 l 0.3912176,-0.892578 c 0.336828,0.04145 0.677464,0.0625 1.028177,0.0625 0.552157,0 1.088516,-0.05208 1.604191,-0.150391 l 0,0.738281 C 12.841396,18.729396 13.115735,19 13.45083,19 l 1.553077,0 c 0.223969,0 0.428749,-0.121703 0.53473,-0.318359 0.826491,-1.542129 1.72533,-3.090497 2.388593,-4.705079 0.335059,-0.817622 0.456279,-1.686251 0.383355,-2.533203 C 18.1925,10.077169 17.566602,8.7661809 16.519632,7.8105469 15.908469,7.2516572 15.200194,6.8134888 14.439688,6.4960938 c -0.09896,0.1483525 -0.21357,0.2903063 -0.342069,0.4179687 -0.170168,0.169061 -0.359799,0.314131 -0.568151,0.4296875 0.2205,0.072379 0.431812,0.1551697 0.634992,0.25 0.206412,0.096609 0.287656,0.3482742 0.173001,0.5449219 -0.100713,0.1746197 -0.321051,0.242459 -0.503276,0.15625 C 12.448633,7.6445955 10.901691,7.7673403 10.22279,7.8691406 10.023119,7.8984696 9.8312777,7.7730481 9.7843898,7.578125 l 0,-0.00391 c -0.053858,-0.2207845 0.096709,-0.4381729 0.3224112,-0.4726563 0.123274,-0.018892 0.271683,-0.03806 0.4384,-0.052734 -0.0504,-0.043287 -0.100542,-0.088176 -0.147445,-0.1347656 C 10.158151,6.6760163 9.9714383,6.3983889 9.8394356,6.0878906 9.8255904,6.0550586 9.811039,6.0191602 9.7981512,5.9863281 9.5915384,6.0208121 9.3864223,6.0632067 9.1867501,6.1132812 8.3142682,5.6086317 7.3123469,5.4844873 6.5150649,5.4863281 l 0,-0.00391 z m 0.6782423,3.984375 c 0.4323358,0 0.7824362,0.3458686 0.7824362,0.7753911 -1.92e-5,0.42952 -0.3501004,0.777343 -0.7824362,0.777343 -0.4323348,0 -0.7804702,-0.347841 -0.7804702,-0.777343 0,-0.4295225 0.3481354,-0.7753911 0.7804702,-0.7753911 z M 13.45083,10.494141 c 0.07906,0 0.14713,0.02703 0.20249,0.08203 l 0.403014,0.40039 c 0.05526,0.055 0.08261,0.122672 0.08257,0.201172 0,0.07858 -0.02721,0.144219 -0.08257,0.199219 l -2.146785,2.134766 -0.403013,0.40039 c -0.05536,0.0549 -0.123476,0.08203 -0.20249,0.08203 -0.07909,0 -0.14713,-0.02703 -0.20249,-0.08203 l -0.403013,-0.40039 -1.0733928,-1.066407 c -0.05536,-0.05496 -0.082569,-0.122671 -0.082569,-0.201171 0,-0.07858 0.027208,-0.146172 0.082569,-0.201172 l 0.4030138,-0.400391 c 0.05536,-0.055 0.123375,-0.08203 0.20249,-0.08203 0.07906,0 0.147129,0.02703 0.20249,0.08203 l 0.870902,0.869141 1.946261,-1.935547 c 0.05533,-0.055 0.121409,-0.08203 0.200523,-0.08203 z"
     id="path3197"
     inkscape:connector-curvature="0" />
</svg>

<svg version="1.1" viewBox="0 0 22 22" xmlns="http://www.w3.org/2000/svg">
<defs>
<style id="current-color-scheme" type="text/css">.ColorScheme-Text {
        color:#dedede
      }</style>
<style id="current-color-scheme-3" type="text/css">.ColorScheme-Text {
        color:#dedede
      }</style>
</defs>
<path d="m12.173 3c-1.1123 1e-7 -2.0131 0.89684-2.0131 2.002s0.90075 2 2.0131 2c1.1123-1e-7 2.0151-0.89489 2.0151-2s-0.90272-2.002-2.0151-2.002zm-5.6579 2.4824c-0.26577 7.337e-4 -0.51008 0.016933-0.71756 0.037109-0.36124 0.034502-0.57481 0.41594-0.41678 0.74023l0.7038 1.4336c-0.78131 0.67619-1.3709 1.5009-1.7025 2.4238h-0.85714c-0.28822-0.001701-0.5249 0.23317-0.5249 0.51953v1.9102c0 0.19318 0.10924 0.36929 0.28113 0.45898l1.1107 0.57422c0.46533 1.2747 1.4302 2.3712 2.7012 3.125v1.6914c0 0.33291 0.27432 0.60352 0.60944 0.60352h1.557c0.24132 0 0.46103-0.14227 0.55832-0.36133l0.39122-0.89258c0.33683 0.04145 0.67746 0.0625 1.0282 0.0625 0.55216 0 1.0885-0.05208 1.6042-0.15039v0.73828c0 0.33291 0.27434 0.60352 0.60943 0.60352h1.5531c0.22397 0 0.42875-0.1217 0.53473-0.31836 0.82649-1.5421 1.7253-3.0905 2.3886-4.7051 0.33506-0.81762 0.45628-1.6863 0.38336-2.5332-0.11808-1.3662-0.74398-2.6772-1.791-3.6328-0.61116-0.55889-1.3194-0.99706-2.0799-1.3145-0.09896 0.14835-0.21357 0.29031-0.34207 0.41797-0.17017 0.16906-0.3598 0.31413-0.56815 0.42969 0.2205 0.072379 0.43181 0.15517 0.63499 0.25 0.20641 0.096609 0.28766 0.34827 0.173 0.54492-0.10071 0.17462-0.32105 0.24246-0.50328 0.15625-1.3856-0.65033-2.9325-0.52758-3.6114-0.42578-0.19967 0.029329-0.39151-0.096092-0.4384-0.29102v-0.00391c-0.053858-0.22078 0.096709-0.43817 0.32241-0.47266 0.12327-0.018892 0.27168-0.03806 0.4384-0.052734-0.0504-0.043287-0.10054-0.088176-0.14744-0.13477-0.2396-0.23804-0.42632-0.51567-0.55832-0.82617-0.013845-0.032832-0.028397-0.06873-0.041284-0.10156-0.20661 0.034484-0.41173 0.076879-0.6114 0.12695-0.87248-0.50465-1.8744-0.62879-2.6717-0.62695v-0.00391zm0.67824 3.9844c0.43234 0 0.78244 0.34587 0.78244 0.77539-1.92e-5 0.42952-0.3501 0.77734-0.78244 0.77734-0.43233 0-0.78047-0.34784-0.78047-0.77734 0-0.42952 0.34814-0.77539 0.78047-0.77539zm6.2575 1.0273c0.07906 0 0.14713 0.02703 0.20249 0.08203l0.40301 0.40039c0.05526 0.055 0.08261 0.12267 0.08257 0.20117 0 0.07858-0.02721 0.14422-0.08257 0.19922l-2.1468 2.1348-0.40301 0.40039c-0.05536 0.0549-0.12348 0.08203-0.20249 0.08203-0.07909 0-0.14713-0.02703-0.20249-0.08203l-1.4764-1.4668c-0.05536-0.05496-0.082569-0.12267-0.082569-0.20117 0-0.07858 0.027208-0.14617 0.082569-0.20117l0.40301-0.40039c0.05536-0.055 0.12338-0.08203 0.20249-0.08203 0.07906 0 0.14713 0.02703 0.20249 0.08203l0.8709 0.86914 1.9463-1.9355c0.05533-0.055 0.12141-0.08203 0.20052-0.08203z" color="#dedede" fill="currentColor"/>
</svg>
